X:1
T:Title
%%score { ( 1 4 5 ) | ( 2 3 ) }
L:1/8
Q:1/4=90
M:9/8
K:C
V:1 treble nm="Grand Piano"
V:4 treble 
V:5 treble 
V:2 bass 
V:3 bass 
V:1
 [EG][EA][EB] [Ec]3 [EG]3 | [EG][EB][EA] [_EA]3 [=EG]3 | [G,EG][G,DF][G,CE] [CG]3 [B,F]3 | %3
w: W.~J.~Kirkpatrick * * * *|||
 [G,DF][G,CE][G,B,D] [B,F]3 [CE]3 | [G,EG][EA][EB] [Ec][EG][Ec] dGd | e6 [Ec][EB][EA] | %6
w: |||
 d3 B3 [GB]GA | A3 G6 |[M:6/8] [EG][EB][EA] [EG][EB][EA] | [EG]2 [Ec] [Ec]3 | GBA GBA | Gdd d3 | %12
w: ||||||
 .[Ge]6 | .[Fd]6 | .[FB]6 | c6 | .[Ac]6 | [FA]3 z3 | .[Ec]6 | [_EA]3 z3 | .[EG]6 | [EG]3 z3 | %22
w: ||||||||||
 .[DF]6[K:bass] |[M:9/8] [CE]6 z3 | [Ec]3 [Ge]3 [^Ge]2 [Gd] |[M:21/16] [^Gd]3 z3/2 z3/2 z3/2 z3 | %26
w: ||||
[M:9/8] [EG]3 .[Ec]3 z3[Q:1/4=89][Q:1/4=87][Q:1/4=86][Q:1/4=85][Q:1/4=83][Q:1/4=82] | %27
w: |
 c8- c[Q:1/4=81][Q:1/4=79][Q:1/4=78][Q:1/4=77][Q:1/4=75][Q:1/4=74][Q:1/4=73][Q:1/4=71][Q:1/4=70][Q:1/4=69] |] %28
w: |
V:2
 [C,G,][C,G,][C,G,] [C,G,]3 [C,C]3 | [C,G,][C,G,][C,G,] ^F,3 G,3 | C,C,C, E,3 D,3 | %3
 G,,G,,G,, D,3 C,3 | C,[C,G,][C,G,] [C,G,][C,G,][C,G,][K:treble] [G,B,F][G,B,F][G,B,F] | %5
 [CG]6[K:bass] [C,G,][C,G,][C,C] | [D,B,]3 [D,D]3 [D,D][D,B,D][D,CD] | D3- [G,B,D]6 | %8
[M:6/8] [C,G,][C,G,][C,G,] [C,G,][C,G,][C,G,] | [C,C]2 [C,G,] [C,G,]3 | %10
 [G,B,F][G,DF][G,CF] [G,B,F][G,DF][G,CF] | [G,B,F][G,B,F][G,B,F] [G,B,F]3 | %12
 [C,C]E,G, C,[D,B,][E,C] | [F,A,]F,F, F,[K:treble]AF | G,G,G,[K:bass] G,G,G, | C,C,C, C,3 | %16
 F,F,F, .F,2 F | F,F,F, .[F,A,]3 | [C,G,]C,C, C,[K:treble]GF | C,C,C, .C,3 | A,,A,,A,, z DA,, | %21
 ^C,C,C, .D,3 | G,,G,,G,, z CG,, |[M:9/8] C,C,C, C,3[K:treble] CEG | C,E,G, C3 [E,B,]3 | %25
[M:21/16] [F,B,]->[F,B,] z [F,A,]3/2- [F,A,]3[K:treble] BA/-A/F |[M:9/8] z3 z3 .B,3[K:bass] | %27
 z G,^G, =G,6 |] %28
V:3
 x9 | z3 C,6 | x9 | x9 | x6[K:treble] x3 | x6[K:bass] x3 | x9 | [^F,C]3 z3 z3 |[M:6/8] x6 | x6 | %10
 x6 | x6 | x6 | x4[K:treble] x2 | x3[K:bass] x3 | x6 | x6 | x6 | x4[K:treble] x2 | x6 | z3 .A,,3 | %21
 x6 | z3 .G,,3 |[M:9/8] x6[K:treble] x3 | x9 |[M:21/16] x15/2[K:treble] x3 | %26
[M:9/8] G,G,G, G,G,[G,CG] [G,F]-[G,CF][K:bass]G, | C,8- C, |] %28
V:4
 x9 | x9 | z3 G,6 | z3 G,6 | x9 | x9 | G6 z3 | x9 |[M:6/8] x6 | x6 | x6 | x6 | z CC C[Gd][Gc] | %13
 z A,A, A,cA | DDD D[CFA][DFB] | [CE][B,G][A,F] [G,E]3 | CCC CBA | CCC .[Ac]3 | z G,G, G,BA | %19
 CCC .[C=EG]3 | ^CCC z F[A,CE] | A,A,A, .[A,DF]3 | B,[K:bass]B,B, z E[G,B,D] | %23
[M:9/8] G,G,G, G,3 z3 | x9 |[M:21/16] z3/2 z/ [F,B,] [Ac]3- [Ac] z/ dc/-c/A | %26
[M:9/8] CCC CCe dA[DFB] | .[CE]2 F E6 |] %28
V:5
 x9 | x9 | x9 | x9 | x9 | x9 | x9 | x9 |[M:6/8] x6 | x6 | x6 | x6 | x6 | x6 | x6 | x6 | x6 | x6 | %18
 x6 | x6 | z3 .A,3 | x6 | z3[K:bass] .G,3 |[M:9/8] x9 | x9 |[M:21/16] x21/2 |[M:9/8] x9 | x9 |] %28

